X:1
T: The Dovecoat
C:
R:Strathspey
Q: 128
K:A
M:4/4
L:1/16
|:E4|c4 d3c e4 A3B|A4 B2A2 G4 B3c|d4 c3d f4 G3e|c12E4|
c4 d3c e4 A3B|A8 G4 B3c|d4 c3d f4 G3e|A12:|
|:c4|c4 d3c f4 c3f|e8 d4d4|d4 e3d g4 d2g2|f8e4e4|
a4e4c4B4|^A2g2 f2e2 d2F2 G2=A2|c4 ^E3=E B4 F4|A12:|
